assets/img/braze_icons/arrow-block-right.svg

<svg fill="none" height="24" viewBox="0 0 24 24" width="24" xmlns="http://www.w3.org/2000/svg"><path clip-rule="evenodd" d="m13.6173 4.07615c.3737-.15478.8038-.06923 1.0898.21677l7 6.99998c.3905.3905.3905 1.0237 0 1.4142l-7 7c-.286.286-.7161.3716-1.0898.2168-.3736-.1548-.6173-.5194-.6173-.9239v-3c-3.07436 0-6.14874-.0011-9.22312 0-.11911.0001-.26138.0001-.3867-.0101-.14522-.0119-.35321-.0423-.57115-.1534-.28225-.1438-.51172-.3732-.65553-.6555-.11105-.2179-.14149-.4259-.15335-.5711-.01024-.1254-.01019-.2676-.01014-.3867.00056-1.4821.00056-2.9642 0-4.44631-.00005-.11912-.0001-.26137.01014-.38669.01186-.14522.0423-.35321.15335-.57116.14381-.28224.37328-.51171.65553-.65552.21794-.11105.42593-.14149.57115-.15336.12532-.01024.26758-.01018.38669-.01014 3.07438.00122 6.14876.00001 9.22313.00001v-3c0-.40446.2437-.7691.6173-.92388z" fill="#801ed7" fill-rule="evenodd"/></svg>

<svg width="24" height="24" viewBox="0 0 24 24" fill="none" xmlns="http://www.w3.org/2000/svg">
<path fill-rule="evenodd" clip-rule="evenodd" d="M13.6173 4.07615C13.991 3.92137 14.4211 4.00692 14.7071 4.29292L21.7071 11.2929C22.0976 11.6834 22.0976 12.3166 21.7071 12.7071L14.7071 19.7071C14.4211 19.9931 13.991 20.0787 13.6173 19.9239C13.2437 19.7691 13 19.4045 13 19V16C9.92564 16 6.85126 15.9989 3.77688 16C3.65777 16.0001 3.5155 16.0001 3.39018 15.9899C3.24496 15.978 3.03697 15.9476 2.81903 15.8365C2.53678 15.6927 2.30731 15.4633 2.1635 15.181C2.05245 14.9631 2.02201 14.7551 2.01015 14.6099C1.99991 14.4845 1.99996 14.3423 2.00001 14.2232C2.00057 12.7411 2.00057 11.259 2.00001 9.77689C1.99996 9.65777 1.99991 9.51552 2.01015 9.3902C2.02201 9.24498 2.05245 9.03699 2.1635 8.81904C2.30731 8.5368 2.53678 8.30733 2.81903 8.16352C3.03697 8.05247 3.24496 8.02203 3.39018 8.01016C3.5155 7.99992 3.65776 7.99998 3.77687 8.00002C6.85125 8.00124 9.92563 8.00003 13 8.00003V5.00003C13 4.59557 13.2437 4.23093 13.6173 4.07615Z" fill="#801ED7"/>
</svg>
